X:1
T:Christmas Morning
T:G. Froelich.
T:Christmas Morning
T:Public Domain
T:Public Domain
T:Public Domain
T:Public Domain
C:G. Froelich.
Z:Public Domain
%%score ( 1 2 ) ( 3 4 )
L:1/8
M:9/8
K:Bb
V:1 treble 
V:2 treble 
V:3 bass 
V:4 bass 
V:1
 ([DF][EG])[FA] | [DB]3 [DF]3 ([Fd][Ec])[DB] | [FA]3 [EG]3 ([EG][FA])[EG] | [DF]3 [FB]3 (Bc)[_Ed] | %4
w: 1.~Glo- * ry’s|kiss a- woke * the|morn- ing, Which * be-|held the Sav- * ior’s|
w: 2.~Ol- * ive,|myr- tle, pine * and|lau- rel, Weave * in|beau- teous gar- * lands|
 [Fc]3- [Fc]2 z (FG)[EF] | [DB]3 [DF]3 (BA)[FB] | [Ec]3 [EG]3 ([Ge][Fd])[Ec] | %7
w: And * with * na-|ros- y dawn- * ing,|good- will, was * born|
w: While * our * voic-|raise a chor- * al,|our love and * thanks|
 [DB]3 [FB]3 (AG)[EA] | [DB]3- [DB]2 z (AG)[CF] | [CF]3 [C=E]3 ([EB][FA])[EG] | %10
w: on earth. Heav- * en’s|rolled * wide * a-|der, Through the * gate|
w: to bear. But * how|the * gifts * we|fer, Have we * aught|
 [Fd]3 [Fc]3 (FG)[FA] | [FB]3 [DG]3 (=ED)[CE] | [CF]3- [CF]2 z (FG)[EF] | %13
w: of pearl and * gem,|gels thronged to * see|won- * der, * Earth|
w: to give but * them?|our hearts we * hum-|prof- * fer, * Make|
 [DB]3 [DF]3 ([Fd][Ec])[DB] | [FA]3 [EG]3 ([Ge][Fd])[Ec] | [DB]3 [FB]3 (AG)[EA] | [DB]3- [DB]2 z || %17
w: Heav- en’s di- * a-|dem. Ring, O * bells,|your loud- est, * sweet-|And *|
w: now a Beth- * le-|hem. * * * *|||
"^Refrain" (cd)[Fe] | !>![Fd]3 [FB]3 (cd)[Fe] | !>![Fd]3 [FB]3 (BA)[FB] | [Ec]3 [EG]3 (Gc)[_EB] | %21
w: ye * child-|shout with glee; * Love|great- est, the * com-|est, Christ- mas * gave|
w: ||||
 [FA]6 (AG)[FA] | [FB]3 [Fd]3 (Bc)[Fd] | [Ee]3 [EG]3 (cd)[Ge] | [Fd]3 [FB]3 (AG)[EA] | %25
w: you and * me.|O bells, ring, * O|Ring your loud- * est,|your sweet- est, * Ring,|
w: ||||
 [DB]6 (FG)F | (E2 E [Ec]2) z (FG)F | (F2 F [Fd]2) z (de)[Fd] | (=E2 E) [EG]2 z (cd)[=Ec] | %29
w: bells, ring, * O|bells, * * Ring * your|est * * Christ- * mas||
w: ||||
 (D2 D) [DF]2 z (DE)D | (C2 C [Cc]2) z (DE)D | (D2 D [DB]2) z (cB)[EG] | [DF]3 [FB]3 (AG)[EA] | %33
w: ||||
w: ||||
 (D2 E) [DB]3 |] %34
w: |
w: |
V:2
 x3 | x9 | x9 | x6 =E2 x | x6 E2 x | x6 F2 x | x9 | x6 E2 x | x6 C2 x | x9 | x6 F2 x | x6 C2 x | %12
w: |||birth,|ture’s|Peace,||door|sun-||An-|this|
w: |||fair;|es|Him||poor|of-||Yea,|bly|
 x6 E2 x | x9 | x9 | x6 E2 x | x6 || F2 x | x6 F2 x | x6 F2 x | x6 =E2 x | x6 F2 x | x6 F2 x | %23
w: held|||est,||ren,|the|plet-|to|Ring,|bells,|
w: them|||||||||||
 x6 G2 x | x6 E2 x | x9 | c3- x6 | d3- x F2 x3 | c3 x _E2 x3 | B3 x6 | c3- x6 | B3- x E2 x3 | %32
w: ring|O||sweet-|bells! *|||||
w: |||||||||
 x6 E2 x | B3- x3 |] %34
w: ||
w: ||
V:3
 [B,,B,]2 [B,,B,] | [B,,F,]3 [B,,B,]3 [B,,B,][C,A,][D,B,] | [E,B,]3 [E,B,]3 [E,B,]2 [E,B,] | %3
w: ~ ~|~ ~ ~ ~ ~|~ ~ ~ ~|
 [B,,B,]3 [D,B,]3 [C,B,]2 [C,B,] | [F,A,]3- [F,A,]2 z [F,A,]2 [F,A,] | %5
w: ~ ~ ~ ~|~ * ~ ~|
 [B,,B,]3 [B,,B,]3 [D,B,]2 [D,B,] | [E,G,]3 [E,B,]3 [E,B,]2 [E,B,] | [F,B,]3 [F,D]3 [F,C]2 [F,C] | %8
w: ~ ~ ~ ~|~ ~ ~ ~|~ ~ ~ ~|
 [B,,B,]3- [B,,B,]2 z (CB,)[F,A,] | [G,B,]3 [G,B,]3 (G,A,)[C,B,] | [F,B,]3 [F,A,]3 (A,B,)[F,C] | %11
w: ~ * ~ * ~|~ ~ ~ * ~|~ ~ ~ * ~|
 [B,,D]3 [B,,B,]3 (G,F,)[C,G,] | [F,A,]3- [F,A,]2 z [F,A,]2 [F,A,] | %13
w: ~ ~ ~ * ~|~ * ~ ~|
 [B,,B,]3 [B,,B,]3 ([B,,B,][C,A,])[D,B,] | [E,B,]3 [E,B,]3 [E,B,]2 [E,B,] | %15
w: ~ ~ ~ * ~|~ ~ ~ ~|
 [F,B,]3 [F,D]3 [F,C]2 [F,C] | [B,,B,]3- [B,,B,]2 z || (A,B,)[F,C] | B,3 [B,D]3 (A,B,)[F,C] | %19
w: ~ ~ ~ ~|~ *|~ * ~|~ ~ ~ * ~|
 [B,,B,]3 [B,,D]3 [D,B,]2 [D,B,] | [E,G,]3 [E,B,]3 [C,C]2 [C,C] | [F,C]6 [E,C]2 [E,C] | %22
w: ~ ~ ~ ~|~ ~ ~ ~|~ ~ ~|
 [D,B,]3 [B,,B,]3 [_A,D]2 [B,C] | [G,B,]3 [E,B,]3 [E,B,]2 [E,B,] | [F,B,]3 [F,D]3 [F,C]2 [F,C] | %25
w: ~ ~ ~ ~|~ ~ Christ- mas|bells, Christ- mas bells,|
 [B,,B,]6 z3 | [F,A,]2 [F,A,] [F,A,]2 z4 | B,2 _B, _B,2 z [G,=B,]2 [G,B,] | %28
w: Ring|your loud- est|bells, Ring your sweet- test|
 [C,C]2 [C,G,] [C,C]2 z [F,A,]2 [F,A,] | [B,,B,]2 [B,,F,] [B,,B,]2 z4 | %30
w: bells, Christ- mas bells, ~|~ ~ ~|
 [^F,A,]2 [F,A,] [F,A,]2 z4 | G,2 G, G,2 z [E,G,]2 [E,B,] | [F,B,]3 [F,D]3 [F,C]2 [F,C] | %33
w: ~ ~ bells,|O~ring! * * * *||
 B,2 G, [B,,F,]3 |] %34
w: |
V:4
 x3 | x9 | x9 | x9 | x9 | x9 | x9 | x9 | x6 F,2 x | x6 C,2 x | x6 F,2 x | x6 C,2 x | x9 | x9 | x9 | %15
w: ||||||||~|~|~|~||||
 x9 | x6 || F,2 x | B,3 F,2 x4 | x9 | x9 | x9 | x9 | x9 | x9 | x9 | x9 | =B,2 =B, =B,2 x4 | x9 | %29
w: ||~|~ ~|||||||||bells, Christ- mas||
 x9 | x9 | G,2 G, G,2 x4 | x9 | B,,3- x3 |] %34
w: |||||

